packages/icons/src/SVG/unlinked.svg

<svg width="12" height="12" viewBox="0 0 12 12" fill="none" xmlns="http://www.w3.org/2000/svg">
<path d="M4 0V2.5H3V0H4Z" fill="#4C505B"/>
<path d="M8.44269 1.37102C8.83309 0.980624 9.46595 0.980664 9.8566 1.37132L10.5637 2.07843C10.9542 2.46895 10.9542 3.10212 10.5637 3.49264L7.02818 7.02817L7.73528 7.73528L11.2708 4.19975C12.0519 3.4187 12.0519 2.15237 11.2708 1.37132L10.5637 0.664214C9.78279 -0.116703 8.51677 -0.117271 7.73559 0.66391L5.96752 2.43198L6.67462 3.13909L8.44269 1.37102Z" fill="#4C505B"/>
<path d="M3.49234 10.564C3.10195 10.9544 2.46909 10.9544 2.07843 10.5637L1.37132 9.8566C0.980799 9.46608 0.9808 8.83291 1.37132 8.44239L4.90686 4.90685L4.19975 4.19975L0.664217 7.73528C-0.116832 8.51633 -0.116832 9.78266 0.664217 10.5637L1.37132 11.2708C2.15224 12.0517 3.41827 12.0523 4.19945 11.2711L5.96752 9.50305L5.26041 8.79594L3.49234 10.564Z" fill="#4C505B"/>
<path d="M9.5 8H12V9H9.5V8Z" fill="#4C505B"/>
<path d="M2.5 3H0V4H2.5V3Z" fill="#4C505B"/>
<path d="M9 12V9.5H8V12H9Z" fill="#4C505B"/>
</svg>

<!-- Generated by IcoMoon.io -->
<svg version="1.1" xmlns="http://www.w3.org/2000/svg" width="12" height="12" viewBox="0 0 12 12">
<title>unlinked</title>
<path d="M4 0v2.5h-1v-2.5h1z"></path>
<path d="M8.443 1.371c0.39-0.39 1.023-0.39 1.414 0l0.707 0.707c0.391 0.391 0.391 1.024 0 1.414l-3.536 3.536 0.707 0.707 3.536-3.536c0.781-0.781 0.781-2.047 0-2.828l-0.707-0.707c-0.781-0.781-2.047-0.781-2.828-0l-1.768 1.768 0.707 0.707 1.768-1.768z"></path>
<path d="M3.492 10.564c-0.39 0.39-1.023 0.39-1.414-0l-0.707-0.707c-0.391-0.391-0.391-1.024 0-1.414l3.536-3.536-0.707-0.707-3.536 3.536c-0.781 0.781-0.781 2.047 0 2.828l0.707 0.707c0.781 0.781 2.047 0.782 2.828 0l1.768-1.768-0.707-0.707-1.768 1.768z"></path>
<path d="M9.5 8h2.5v1h-2.5v-1z"></path>
<path d="M2.5 3h-2.5v1h2.5v-1z"></path>
<path d="M9 12v-2.5h-1v2.5h1z"></path>
</svg>
